!! 00026] TT[TB
!! Eigene Aufnahme, Guangzhou, 5.5.87
!!!OTL: Xin xiu hebao liangmian hong
!!!ARE: Asia, China,ÿGuangdong, Xingning
!! Ethnic Group: Han
!! II, 407
!!!SCT: C0930
!!!YEM: Copyright 1995, estate of Helmut Schaffrath.
**kern
*ICvox
*Ivox
!! Mixed meters:  4/4; 3/4
*M3/4
*k[b-]
*F:
{8d
8d
8d
8g
16f
16d
8g
16g
16f
[8g
=1
2.g]}
=2
*M4/4
{8d
16f
16g
16f
16d
8r
16d
16f
8d
16g
16f
8d
=3
[2f
8f]
24d
24f
24d
4r}
{8d
16f
16d
16f
16g
16f
16d
4cc
8d
8r}
{8d
16f
16g
4.f
16f
16g
=4
8f
16g
16f
16d
32f
32g
16f
16d
2d}
=5
{8g
8d
8d
16f
16g
16f
16d
8g
16g
16f
[8g
=6
*M3/4
2.g]}
=7
*M4/4
{8d
16f
16g
8f
8d
16d
16f
8d
16g
16f
8d
=8
2f
4d
4r}
=9
{8d
16f
16g
16f
16d
16d
16d
4cc
8d
8r}
=10
*M3/4
{8d
16f
16g
4.f
16f
16g
=11
8g
16f
16g
16d
32f
32g
16f
16d
4d}
==
!!!AGN: Shange, Shima shange. Biaoda aiqing
!! Der Saenger Lai Yuan Shen war frueher selbst Landarbeiter. Heute ist
!!    er Student an der Guangzhouer Musikhochschule. Aufgenommen am 5.5.87
!!    Einige Verzierungen und Glissandi.
!!!ONB: ESAC (Essen Associative Code) Database: CHINA
!!!AMT: irregular
!!!AIN: vox
!!!EED: Helmut Schaffrath
!!!EEV: 1.0
*-
!!!ONB: Tied note syntax fixed by Craig Sapp, 2004/05/03/
